X:74
T:Lo Pastro
M:3/4
L:1/4
K:C
GAB|cde|fdB|G3|:GAB|cde|fed|\
g2g|f2f|e2e|dfe|d3-|d3|
GAB|cde|fed|\
L:1/8
g3e ge|f3d fd|e3c ec|d3B dB|c6-|c6:|\
G2c2e2|:g3e ge|
g3e ge|g3e ge|\
f3e de|f3e de|f3d ef|ga gf ed|1 e2 cG ce:|2 c6-|c6||
